src/assets/DiscordLogo.svg

<svg width="24" height="24" viewBox="0 0 24 24" fill="none" xmlns="http://www.w3.org/2000/svg">
<path d="M9.75 13.125C9.75 13.3475 9.68402 13.565 9.5604 13.75C9.43679 13.935 9.26109 14.0792 9.05552 14.1643C8.84995 14.2495 8.62375 14.2718 8.40552 14.2284C8.18729 14.185 7.98684 14.0778 7.8295 13.9205C7.67217 13.7631 7.56502 13.5627 7.52162 13.3445C7.47821 13.1262 7.50049 12.9 7.58564 12.6945C7.67078 12.4889 7.81498 12.3132 7.99998 12.1896C8.18499 12.066 8.4025 12 8.625 12C8.92337 12 9.20952 12.1185 9.4205 12.3295C9.63147 12.5405 9.75 12.8266 9.75 13.125ZM15.375 12C15.1525 12 14.935 12.066 14.75 12.1896C14.565 12.3132 14.4208 12.4889 14.3356 12.6945C14.2505 12.9 14.2282 13.1262 14.2716 13.3445C14.315 13.5627 14.4222 13.7631 14.5795 13.9205C14.7368 14.0778 14.9373 14.185 15.1555 14.2284C15.3738 14.2718 15.6 14.2495 15.8055 14.1643C16.0111 14.0792 16.1868 13.935 16.3104 13.75C16.434 13.565 16.5 13.3475 16.5 13.125C16.5 12.8266 16.3815 12.5405 16.1705 12.3295C15.9595 12.1185 15.6734 12 15.375 12ZM22.3547 18.0844L16.0734 20.8697C15.8846 20.9536 15.6805 20.9981 15.4738 21.0003C15.2672 21.0025 15.0622 20.9624 14.8716 20.8825C14.681 20.8026 14.5087 20.6846 14.3654 20.5357C14.222 20.3867 14.1107 20.2101 14.0381 20.0165L13.2778 17.954C12.8578 17.9822 12.4319 17.9965 12 17.9972C11.5681 17.9978 11.1422 17.9834 10.7222 17.954L9.96187 20.0165C9.88921 20.21 9.77779 20.3866 9.63444 20.5354C9.49109 20.6843 9.31883 20.8023 9.12824 20.8821C8.93766 20.962 8.73276 21.0021 8.52612 21C8.31947 20.9978 8.11545 20.9535 7.92656 20.8697L1.64531 18.0844C1.32111 17.9426 1.05777 17.6904 0.902216 17.3725C0.746661 17.0547 0.708997 16.692 0.795937 16.349L3.5625 5.43748C3.63551 5.15371 3.78969 4.89738 4.00616 4.6999C4.22263 4.50241 4.49198 4.37234 4.78125 4.3256L8.16187 3.76967C8.53456 3.70973 8.91621 3.79054 9.23261 3.99639C9.54901 4.20224 9.77754 4.51841 9.87375 4.88342L10.1794 6.08717C10.775 6.02904 11.3819 5.99998 12 5.99998C12.6181 5.99998 13.2244 6.02904 13.8187 6.08717L14.1244 4.88342C14.2204 4.5183 14.4489 4.202 14.7653 3.99611C15.0818 3.79023 15.4635 3.70951 15.8362 3.76967L19.2188 4.3256C19.508 4.37234 19.7774 4.50241 19.9938 4.6999C20.2103 4.89738 20.3645 5.15371 20.4375 5.43748L23.2059 16.3481C23.293 16.6914 23.2552 17.0546 23.0993 17.3726C22.9433 17.6906 22.6794 17.9429 22.3547 18.0844ZM21.75 16.7137L18.9816 5.81248C18.9816 5.81248 18.9816 5.81248 18.9741 5.81248L15.5934 5.24998C15.591 5.24858 15.5883 5.24784 15.5855 5.24784C15.5827 5.24784 15.5799 5.24858 15.5775 5.24998L15.3122 6.29435C15.7809 6.38248 16.2497 6.48748 16.7025 6.61498C16.881 6.66049 17.0365 6.77011 17.1394 6.92294C17.2423 7.07577 17.2853 7.26112 17.2603 7.44364C17.2353 7.62617 17.1439 7.79309 17.0037 7.91258C16.8635 8.03208 16.6842 8.09578 16.5 8.09154C16.4315 8.09135 16.3634 8.08189 16.2975 8.06342C14.8968 7.68334 13.4513 7.49382 12 7.49998C10.5487 7.49352 9.10322 7.68272 7.7025 8.06248C7.60681 8.09206 7.50617 8.10218 7.40651 8.09223C7.30685 8.08229 7.2102 8.05249 7.12224 8.00458C7.03429 7.95668 6.95682 7.89164 6.89441 7.81331C6.832 7.73498 6.7859 7.64494 6.75885 7.54851C6.7318 7.45208 6.72434 7.35121 6.73691 7.25184C6.74947 7.15248 6.78181 7.05664 6.83202 6.96998C6.88222 6.88332 6.94928 6.80759 7.02922 6.74726C7.10917 6.68693 7.20039 6.64323 7.2975 6.61873C7.74937 6.49123 8.21438 6.38623 8.68687 6.2981L8.42156 5.24998C8.42156 5.24998 8.42156 5.24998 8.41031 5.24998L5.02594 5.80592C5.02318 5.80516 5.02026 5.80516 5.0175 5.80592L2.25 16.7184L8.53125 19.5C8.53441 19.5017 8.53796 19.5026 8.54156 19.5026C8.54517 19.5026 8.54871 19.5017 8.55187 19.5L9.1875 17.7862C8.55065 17.6888 7.92016 17.5536 7.29937 17.3812C7.11447 17.3221 6.95968 17.1937 6.86754 17.0228C6.77539 16.852 6.75308 16.6521 6.80528 16.4651C6.85748 16.2782 6.98014 16.1187 7.14746 16.0203C7.31478 15.9219 7.51374 15.8922 7.7025 15.9375C9.10313 16.3177 10.5487 16.5069 12 16.5C13.4513 16.5069 14.8969 16.3177 16.2975 15.9375C16.4891 15.8838 16.6941 15.9084 16.8676 16.0059C17.041 16.1033 17.1686 16.2657 17.2223 16.4573C17.2761 16.6489 17.2515 16.854 17.154 17.0274C17.0565 17.2008 16.8941 17.3285 16.7025 17.3822C16.0811 17.5543 15.45 17.6892 14.8125 17.7862L15.4453 19.5C15.4483 19.5016 15.4517 19.5025 15.4552 19.5025C15.4586 19.5025 15.462 19.5016 15.465 19.5L21.75 16.7137Z" fill="#100F0F"/>
</svg>

<svg xmlns="http://www.w3.org/2000/svg" width="24" height="24" fill="none"><path fill="#100F0F" d="M9.75 13.125a1.125 1.125 0 1 1-2.25 0 1.125 1.125 0 0 1 2.25 0ZM15.375 12a1.125 1.125 0 1 0 0 2.25 1.125 1.125 0 0 0 0-2.25Zm6.98 6.084-6.282 2.786a1.517 1.517 0 0 1-2.035-.854l-.76-2.062c-.42.028-.846.043-1.278.043-.432 0-.858-.014-1.278-.043l-.76 2.063a1.516 1.516 0 0 1-2.035.853l-6.282-2.786a1.493 1.493 0 0 1-.85-1.735L3.564 5.437A1.507 1.507 0 0 1 4.78 4.326l3.38-.556a1.52 1.52 0 0 1 1.713 1.113l.305 1.204A18.735 18.735 0 0 1 12 6c.618 0 1.224.029 1.819.087l.305-1.204a1.52 1.52 0 0 1 1.712-1.113l3.383.556a1.506 1.506 0 0 1 1.218 1.111l2.769 10.911a1.493 1.493 0 0 1-.851 1.736Zm-.605-1.37L18.982 5.812h-.008l-3.38-.562a.016.016 0 0 0-.016 0l-.266 1.044c.469.088.938.193 1.39.321a.75.75 0 0 1-.202 1.477.758.758 0 0 1-.203-.029c-1.4-.38-2.846-.57-4.297-.563a16.148 16.148 0 0 0-4.298.562.75.75 0 1 1-.404-1.443c.451-.128.916-.233 1.389-.32L8.422 5.25H8.41l-3.384.556h-.008L2.25 16.718 8.531 19.5a.022.022 0 0 0 .02 0l.636-1.714a16.22 16.22 0 0 1-1.888-.405.75.75 0 0 1 .403-1.444c1.401.38 2.847.57 4.298.563a16.112 16.112 0 0 0 4.297-.563.75.75 0 0 1 .405 1.445c-.62.172-1.252.307-1.89.404l.633 1.714a.021.021 0 0 0 .02 0l6.285-2.786Z"/></svg>
